round/svg/dialer_sip.svg

<svg xmlns="http://www.w3.org/2000/svg" width="24" height="24"><path fill="none" d="M0 0h24v24H0V0z"/><g><path d="M16.5 8c.28 0 .5-.22.5-.5v-4c0-.28-.22-.5-.5-.5s-.5.22-.5.5v4c0 .28.22.5.5.5zM12.5 7c-.28 0-.5.22-.5.5s.22.5.5.5h1.95c.3 0 .55-.25.55-.55v-1.9c0-.3-.25-.55-.55-.55H13V4h1.5c.28 0 .5-.22.5-.5s-.22-.5-.5-.5h-1.95c-.3 0-.55.25-.55.55v1.89c0 .31.25.56.55.56H14v1h-1.5zM20.45 3h-1.89c-.31 0-.56.25-.56.55V7.5c0 .28.22.5.5.5s.5-.22.5-.5V6h1.45c.3 0 .55-.25.55-.55v-1.9c0-.3-.25-.55-.55-.55zM20 5h-1V4h1v1z"/><path d="M19.21 15.27l-2.54-.29a1.99 1.99 0 0 0-1.64.57l-1.84 1.84A15.045 15.045 0 0 1 6.6 10.8l1.85-1.85c.43-.43.64-1.04.57-1.64l-.29-2.52a2 2 0 0 0-1.98-1.78H5.02c-1.13 0-2.07.94-2 2.07.53 8.54 7.36 15.36 15.89 15.89 1.13.07 2.07-.87 2.07-2v-1.73c.01-1-.76-1.86-1.77-1.97z"/></g></svg>

<?xml version="1.0" encoding="utf-8"?>
<!-- Generator: Adobe Illustrator 19.1.0, SVG Export Plug-In . SVG Version: 6.00 Build 0)  -->
<svg version="1.1" xmlns="http://www.w3.org/2000/svg" xmlns:xlink="http://www.w3.org/1999/xlink" x="0px" y="0px" width="24px"
	 height="24px" viewBox="0 0 24 24" enable-background="new 0 0 24 24" xml:space="preserve">
<g id="Bounding_Boxes">
	<g id="ui_x5F_spec_x5F_header_copy_2">
	</g>
	<path fill="none" d="M0,0h24v24H0V0z"/>
</g>
<g id="Rounded_1_">
	<g>
		<path d="M16.5,8C16.78,8,17,7.78,17,7.5v-4C17,3.22,16.78,3,16.5,3S16,3.22,16,3.5v4C16,7.78,16.22,8,16.5,8z"/>
		<path d="M12.5,7C12.22,7,12,7.22,12,7.5C12,7.78,12.22,8,12.5,8h1.95C14.75,8,15,7.75,15,7.45V5.55C15,5.25,14.75,5,14.45,5H13V4
			h1.5C14.78,4,15,3.78,15,3.5C15,3.22,14.78,3,14.5,3h-1.95C12.25,3,12,3.25,12,3.55v1.89C12,5.75,12.25,6,12.55,6H14v1H12.5z"/>
		<path d="M20.45,3h-1.89C18.25,3,18,3.25,18,3.55V7.5C18,7.78,18.22,8,18.5,8S19,7.78,19,7.5V6h1.45C20.75,6,21,5.75,21,5.45V3.55
			C21,3.25,20.75,3,20.45,3z M20,5h-1V4h1V5z"/>
		<path d="M19.21,15.27l-2.54-0.29c-0.61-0.07-1.21,0.14-1.64,0.57l-1.84,1.84c-2.83-1.44-5.15-3.75-6.59-6.59l1.85-1.85
			c0.43-0.43,0.64-1.04,0.57-1.64L8.73,4.79C8.62,3.78,7.76,3.01,6.75,3.01H5.02c-1.13,0-2.07,0.94-2,2.07
			c0.53,8.54,7.36,15.36,15.89,15.89c1.13,0.07,2.07-0.87,2.07-2v-1.73C20.99,16.24,20.22,15.38,19.21,15.27z"/>
	</g>
	<g id="ui_x5F_spec_x5F_header_copy_6">
	</g>
</g>
</svg>
